!!!COM: Bach, Johann Sebastian
!!!OPR: Inventio
!!!OTL: Inventio 15
!!!XEN: Two-part Inventions [for keyboard]
!!!ONM: No. 15
!!!ONB: In B minor.
!!!SCT: BWV 786
!!!YEC: Copyright 1994, David Huron
!!!YEM: Rights to all derivative electronic formats reserved.
!! Performance duration: 1:12; performance tempo: 73.3 quarter-notes per minute.
!! (Andras Schiff, piano, "Two-Part Inventions BWV 772a-786; Three-part
!! Inventions BWV 787-801" Decca 411 974-2)
**kern	**kern
*staff2	*staff1
*clefF4	*clefG2
*k[f#c#]	*k[f#c#]
*b:	*b:
*M4/4	*M4/4
*MM73.3	*MM73.3
=1-	=1-
8BB	8r
8r	16b
.	16a#
8D	8b
8r	8f#
8E	8gM
8r	8f#
8D	8b
8r	8f#
=2	=2
8C#	8f#M
8r	8e
8AA#	8cc#
8r	8e
8BB	8eM
8r	16d
.	16c#
8GG	16d
.	16e
8r	16f#
.	16e
=3	=3
8FF#	8f#W
16F#	8r
16E#	.
8F#	16r
.	16a
8C#	16g#
.	16a
8DM	16b
.	16cc#
8C#	16b
.	16g#
8F#	16a
.	16b
8C#	16a
.	16f#
=4	=4
8C#M	16g#
.	16a
8BB	16g#
.	16f#
8G#	16e#
.	16g#
8BB	16f#
.	16e#
8BBM	8cc#
16AA	16f#
16GG#	16e#
8AA	16f#
.	16a
8BB	16g#
.	16b
=5	=5
8C#	16a
.	16b
8BB	16cc#
.	16dd
8C#	8.g#M
8CC#	.
.	16f#
8.FF#	8f#
.	16ff#
16GG#	16ee#
16AA	8ff#
16BB	.
16GG#	8cc#
16AA	.
=6	=6
16BB	8ddM
16C#	.
16BB	8cc#
16GG#	.
16AA	8ff#
16BB	.
16AA	8cc#
16FF#	.
16GG#	8cc#M
16AA	.
16GG#	8b
16FF#	.
16EE#	8gg#
16GG#	.
16FF#	8b
16EE#	.
=7	=7
8FF#	8bM
16F#	16a
16E#	16g#
8F#	16a
.	16b
8C#	16a
.	16e#
8D	8f#
16d	16ff#
16c#	16een
16d	8ff#
16en	.
16d	8cc#
16A#	.
=8	=8
8B	16dd
.	16ee
8An	16dd
.	16b
8G	16ee
.	16b
8F#	16ff#
.	16b
8E	16gg
.	16aa
8EE	16gg
.	16ee
8FF#	16aa
.	16ee
8GG	16bb
.	16dd
=9	=9
8AA	16cc#
.	16dd
8G	16cc#
.	16a
8F#	16dd
.	16a
8E	16ee
.	16a
8D	16ff#
.	16gg
8DD	16ff#
.	16dd
8EE	16gg
.	16dd
8FF#	16aa
.	16dd
=10	=10
8GG	16bb
.	16cccn
8G	16bb
.	16ee
8F#	16aa
.	16bb
8B	16aa
.	16dd
8E	16gg
.	16aa
8A	16gg
.	16cc#
8D	16ff#
.	16gg
[8d	16ff#
.	16dd
=11	=11
16d]	8ee
16e	.
16d	16gM
16B	16f#
16c#	8g
16d	.
16c#	8ee
16A	.
16d	8f#
16c#	.
16B	8dd
16A	.
16G	8e
16F#	.
16G	8cc#
16A	.
=12	=12
8D	8dd
16d	8r
16c#	.
8d	16r
.	16f#
8A	16e
.	16f#
8BM	16g
.	16a
8A	16g
.	16e
8d	16f#
.	16g
8A	16f#
.	16d
=13	=13
8AM	16e
.	16f#
8G	16e
.	16d
8e	16c#
.	16e
8G	16d
.	16c#
8GM	8d
16F#	8a
16E	.
16F#	16dd
16G#	16cc#
16A	16b
16G#	16dd
=14	=14
8A	16cc#
.	16b
8E	16a
.	16g#
16D	8a
16C#	.
16BB	8e
16AA	.
16D	8f#M
16E	.
16D	8e
16BB	.
16C#	8a
16D	.
16C#	8e
16AA	.
=15	=15
16BB	8eM
16C#	.
16BB	8d
16AA	.
16GG#	8b
16BB	.
16AA	8d
16GG#	.
8AA	8dM
8A	16c#
.	16B
8Gn	16c#
.	16d#
8F#	16e
.	16d#
=16	=16
8E	16a
.	{16f#
8e	16g
.	16a}
8d	{16g#
.	16a#
8c#	16b
.	16a#}
8B	16ee
.	{16cc#
8BB	16dd
.	16ee}
8AA	{16dd#
.	16ee#
8GG#	16ff#
.	16ee#}
=17	=17
8FF#	{16bb
.	16gg#
16F#	16aa}
16Gn	16b
8A	{16cc#
.	16dd#
8B	16een}
.	16dd#
8E	{16aa
.	16ff#
16EE	16ggn}
16FF#	16a
8GG#	{16b
.	16cc#
8AA	16ddn
.	16cc#}
=18	=18
8DD	16gg
.	16ee
16B	16ff#
16A#	16cc#
8B	16dd
.	16ee
8F#	16ff#
.	16dd
8GM	16ee
.	16ff#
8F#	16ee
.	16cc#
8B	16dd
.	16ee
8F#	16dd
.	16b
=19	=19
8F#M	16cc#
.	16dd
8E	16cc#
.	16b
8c#	16a#
.	16b
8E	16cc#
.	16a#
8EM	8f#
16D	16b
16C#	16a#
16D	8b
16BB	.
16C#	8f#
16D	.
=20	=20
16E	8gM
16F#	.
16E	8f#
16C#	.
16D	8b
16E	.
16D	8f#
16BB	.
16C#	8f#M
16D	.
16C#	8e
16BB	.
16AA#	8cc#
16C#	.
16BB	8e
16AA#	.
=21	=21
8BB	8eM
16B	16d
16A#	16c#
8B	16d
.	16f#
8G	16e
.	16g
16D	8.f#
16F#	.
16E	.
16G	16dd
8F#	8.a#M
8FF#	.
.	16b
=22	=22
1BB;	1b;
==|!	==|!
*-	*-
!!!CDT: 1685/3//-1750/7/28
!!!OCY: Deutschland
!!!AGN: polyphony
!!!AST: baroque
!!!AMT: simple quadruple
!!!SCA: Bach-Werke-Verzeichnis
!!!YOR: Bach Gesellschaft
!!!AIN: cemb; clavi
!!!EEV: 1.0
!!!RDT: 1986 November
!!!YER: 1995 May 22
!!!YEN: Canada
!!!EFL: 15/15
!!!EED: David Huron
